X: 029
T: la Damoselle
B: 204 Favourite Country Dances
N: Published by Straight & Skillern, London ca.1775
F: http://imslp.org/wiki/204_Favourite_Country_Dances_(Various) p.15 #29
Z: 2014 John Chambers <jc:trillian.mit.edu>
N: The interior repeat sign has 4 dots on each side of the double bar; the final repeat sign has only two.
N: There's an unusual comma in the 3rd strain of the dance description.
N: The 2nd strain of music is 14 (6+4+4) bars long.
M: 6/8
L: 1/8
K: D
% - - - - - - - - - - - - - - - - - - - - - - - - -
RF/G/ |\
A2A AFA | B2G G2B | ABG FGE | D2D D(FG) |\
A2A AFA | B2G G2B | ABG FGE | D3- D2 :|
|: A |\
d2d dcd | e2A A2c/d/ | e2e ede | f2d d2f |\
efd cdB | {B}A3- A2F/G/ |
A2A AFA | B2G G2B | A2G F2E | DED D2F/G/ |\
A2A AFA | B2G G2B | ABG FGE | D3- D2 :|
% - - - - - - - - - - - - - - - - - - - - - - - - -
%%begintext align
%% 1st 3 Cu. Balance par di Rigadoon & change places .|
%% D.o back again :| the 1st Man figure on the Wo.s side
%% the Wo. on the Man's, side up again on your own sides
%% to the top & turn .|. cross over 1 Cu. turn your Part:
%% and right & left :|:
%%endtext

%%sep 1 1 500
%%sep 1 1 500
